.local/share/icons/Gruvbox-Plus-Dark/actions/24/vmware-datacenter.svg

<svg width="24" height="24" version="1.1" xmlns="http://www.w3.org/2000/svg">
  <defs>
    <style id="current-color-scheme" type="text/css">.ColorScheme-Text { color:#ebdbb2; } .ColorScheme-Highlight { color:#458588; }</style>
  </defs>
  <path class="ColorScheme-Text" d="m4 5v14h16v-10h-8v-4zm1 2h2v2h-2zm4 0h2v2h-2zm-4 4h2v2h-2zm4 0h2v2h-2zm4 0h2v2h-2zm4 0h2v2h-2zm-12 4h2v2h-2zm4 0h2v2h-2zm4 0h2v2h-2zm4 0h2v2h-2z" fill="currentColor"/>
</svg>

<svg xmlns="http://www.w3.org/2000/svg" width="24" height="24" version="1.1">
 <defs>
  <style id="current-color-scheme" type="text/css">
   .ColorScheme-Text { color:#555555; } .ColorScheme-Highlight { color:#4285f4; } .ColorScheme-NeutralText { color:#ff9800; } .ColorScheme-PositiveText { color:#4caf50; } .ColorScheme-NegativeText { color:#f44336; }
  </style>
 </defs>
 <path style="fill:currentColor" class="ColorScheme-Text" d="m 4,5 v 14 h 8 8 V 9 H 12 V 5 Z M 5,7 H 7 V 9 H 5 Z m 4,0 h 2 V 9 H 9 Z m -4,4 h 2 v 2 H 5 Z m 4,0 h 2 v 2 H 9 Z m 4,0 h 2 v 2 h -2 z m 4,0 h 2 v 2 H 17 Z M 5,15 h 2 v 2 H 5 Z m 4,0 h 2 v 2 H 9 Z m 4,0 h 2 v 2 h -2 z m 4,0 h 2 v 2 h -2 z"/>
</svg>
